packages/icons/src/SVG/thumbs-up.svg

<svg width="12" height="12" viewBox="0 0 12 12" >
<path d="M2 12V5H0V12H2Z" />
<path fill-rule="evenodd" clip-rule="evenodd" d="M5 3.23607L4 5.23607V11H9.38197L11 7.76393V5.5C11 5.22386 10.7761 5 10.5 5H6V1.5C6 1.22386 5.77614 1 5.5 1H5V3.23607ZM4 0H5.5C6.32843 0 7 0.671573 7 1.5V4H10.5C11.3284 4 12 4.67157 12 5.5V8L10 12H3V5L4 3V0Z" />
</svg>

<!-- Generated by IcoMoon.io -->
<svg version="1.1" xmlns="http://www.w3.org/2000/svg" width="12" height="12" viewBox="0 0 12 12">
<title>thumbs-up</title>
<path d="M2 12v-7h-2v7h2z"></path>
<path d="M5 3.236l-1 2v5.764h5.382l1.618-3.236v-2.264c0-0.276-0.224-0.5-0.5-0.5h-4.5v-3.5c0-0.276-0.224-0.5-0.5-0.5h-0.5v2.236zM4 0h1.5c0.828 0 1.5 0.672 1.5 1.5v2.5h3.5c0.828 0 1.5 0.672 1.5 1.5v2.5l-2 4h-7v-7l1-2v-3z"></path>
</svg>
